svg/k8s-statefulset.svg

<?xml version="1.0" encoding="UTF-8"?>
<svg xmlns="http://www.w3.org/2000/svg" xmlns:xlink="http://www.w3.org/1999/xlink" width="32.978001" height="32" viewBox="0 0 32.978001 32">
<path fill-rule="nonzero" fill="rgb(19.607843%, 42.352941%, 89.803922%)" fill-opacity="1" d="M 16.445312 0.847656 C 16.167969 0.859375 15.898438 0.929688 15.648438 1.046875 L 4.789062 6.238281 C 4.21875 6.507812 3.804688 7.023438 3.664062 7.636719 L 0.984375 19.292969 C 0.859375 19.835938 0.960938 20.40625 1.265625 20.871094 C 1.304688 20.925781 1.34375 20.980469 1.386719 21.035156 L 8.902344 30.382812 C 9.296875 30.871094 9.894531 31.15625 10.527344 31.15625 L 22.582031 31.152344 C 23.214844 31.152344 23.8125 30.871094 24.207031 30.378906 L 31.71875 21.03125 C 32.113281 20.542969 32.261719 19.902344 32.121094 19.289062 L 29.4375 7.632812 C 29.296875 7.019531 28.882812 6.503906 28.3125 6.234375 L 17.453125 1.046875 C 17.140625 0.898438 16.792969 0.828125 16.445312 0.847656 M 16.445312 0.847656 "/>
<path fill-rule="nonzero" fill="rgb(100%, 100%, 100%)" fill-opacity="1" d="M 16.4375 0.00390625 C 16.148438 0.0195312 15.863281 0.0898438 15.601562 0.214844 L 4.132812 5.695312 C 3.535156 5.980469 3.097656 6.523438 2.949219 7.167969 L 0.121094 19.472656 C -0.03125 20.117188 0.125 20.796875 0.542969 21.3125 L 8.476562 31.183594 C 8.894531 31.699219 9.523438 32 10.191406 32 L 22.917969 31.996094 C 23.585938 31.996094 24.214844 31.695312 24.632812 31.179688 L 32.5625 21.3125 C 32.976562 20.796875 33.132812 20.117188 32.988281 19.472656 L 30.15625 7.164062 C 30.003906 6.519531 29.566406 5.976562 28.96875 5.691406 L 17.503906 0.214844 C 17.171875 0.0585938 16.804688 -0.015625 16.4375 0.00390625 M 16.445312 0.847656 C 16.792969 0.828125 17.136719 0.898438 17.453125 1.046875 L 28.3125 6.234375 C 28.882812 6.507812 29.296875 7.023438 29.4375 7.632812 L 32.121094 19.289062 C 32.261719 19.902344 32.113281 20.542969 31.71875 21.03125 L 24.207031 30.378906 C 23.8125 30.871094 23.214844 31.15625 22.582031 31.152344 L 10.527344 31.15625 C 9.894531 31.15625 9.296875 30.871094 8.902344 30.382812 L 1.386719 21.035156 C 0.992188 20.546875 0.84375 19.90625 0.984375 19.292969 L 3.664062 7.636719 C 3.804688 7.023438 4.21875 6.507812 4.789062 6.238281 L 15.648438 1.046875 C 15.898438 0.929688 16.167969 0.859375 16.445312 0.847656 M 16.445312 0.847656 "/>
<path fill="none" stroke-width="0.968" stroke-linecap="square" stroke-linejoin="round" stroke="rgb(100%, 100%, 100%)" stroke-opacity="1" stroke-dasharray="2.903 2.903" stroke-dashoffset="0.9" stroke-miterlimit="10" d="M 13.402344 9.230469 L 25.332031 9.230469 L 25.332031 17.609375 L 13.402344 17.609375 Z M 13.402344 9.230469 L 13.402344 9.230469 M 13.402344 9.230469 L 13.402344 9.230469 M 13.402344 9.230469 L 13.402344 9.230469 M 13.402344 9.230469 L 13.402344 9.230469 M 13.402344 9.230469 L 13.402344 9.230469 M 13.402344 9.230469 L 13.402344 9.230469 M 13.402344 9.230469 L 13.402344 9.230469 M 13.402344 9.230469 L 13.402344 9.230469 M 13.402344 9.230469 L 13.402344 9.230469 M 13.402344 9.230469 L 13.402344 9.230469 M 13.402344 9.230469 L 13.402344 9.230469 M 13.402344 9.230469 L 13.402344 9.230469 M 13.402344 9.230469 L 13.402344 9.230469 M 13.402344 9.230469 L 13.402344 9.230469 M 13.402344 9.230469 L 13.402344 9.230469 M 13.402344 9.230469 L 13.402344 9.230469 M 13.402344 9.230469 L 13.402344 9.230469 M 13.402344 9.230469 L 13.402344 9.230469 M 13.402344 9.230469 L 13.402344 9.230469 M 13.402344 9.230469 L 13.402344 9.230469 M 13.402344 9.230469 L 13.402344 9.230469 M 13.402344 9.230469 L 13.402344 9.230469 M 13.402344 9.230469 L 13.402344 9.230469 M 13.402344 9.230469 L 13.402344 9.230469 M 13.402344 9.230469 L 13.402344 9.230469 M 13.402344 9.230469 L 13.402344 9.230469 M 13.402344 9.230469 L 13.402344 9.230469 M 13.402344 9.230469 L 13.402344 9.230469 M 13.402344 9.230469 L 13.402344 9.230469 M 13.402344 9.230469 L 13.402344 9.230469 M 13.402344 9.230469 L 13.402344 9.230469 M 13.402344 9.230469 "/>
<path fill-rule="evenodd" fill="rgb(19.607843%, 42.352941%, 89.803922%)" fill-opacity="1" stroke-width="0.968" stroke-linecap="square" stroke-linejoin="round" stroke="rgb(100%, 100%, 100%)" stroke-opacity="1" stroke-dasharray="2.903 2.903" stroke-dashoffset="1.287" stroke-miterlimit="10" d="M 10.589844 11.808594 L 22.519531 11.808594 L 22.519531 20.191406 L 10.589844 20.191406 Z M 10.589844 11.808594 L 10.589844 11.808594 M 10.589844 11.808594 L 10.589844 11.808594 M 10.589844 11.808594 L 10.589844 11.808594 M 10.589844 11.808594 L 10.589844 11.808594 M 10.589844 11.808594 L 10.589844 11.808594 M 10.589844 11.808594 L 10.589844 11.808594 M 10.589844 11.808594 L 10.589844 11.808594 M 10.589844 11.808594 L 10.589844 11.808594 M 10.589844 11.808594 L 10.589844 11.808594 M 10.589844 11.808594 L 10.589844 11.808594 M 10.589844 11.808594 L 10.589844 11.808594 M 10.589844 11.808594 L 10.589844 11.808594 M 10.589844 11.808594 L 10.589844 11.808594 M 10.589844 11.808594 L 10.589844 11.808594 M 10.589844 11.808594 L 10.589844 11.808594 M 10.589844 11.808594 L 10.589844 11.808594 M 10.589844 11.808594 L 10.589844 11.808594 M 10.589844 11.808594 L 10.589844 11.808594 M 10.589844 11.808594 L 10.589844 11.808594 M 10.589844 11.808594 L 10.589844 11.808594 M 10.589844 11.808594 L 10.589844 11.808594 M 10.589844 11.808594 L 10.589844 11.808594 M 10.589844 11.808594 L 10.589844 11.808594 M 10.589844 11.808594 L 10.589844 11.808594 M 10.589844 11.808594 L 10.589844 11.808594 M 10.589844 11.808594 L 10.589844 11.808594 M 10.589844 11.808594 L 10.589844 11.808594 M 10.589844 11.808594 L 10.589844 11.808594 M 10.589844 11.808594 L 10.589844 11.808594 M 10.589844 11.808594 L 10.589844 11.808594 M 10.589844 11.808594 L 10.589844 11.808594 M 10.589844 11.808594 "/>
<path fill-rule="evenodd" fill="rgb(100%, 100%, 100%)" fill-opacity="1" stroke-width="0.968" stroke-linecap="butt" stroke-linejoin="round" stroke="rgb(100%, 100%, 100%)" stroke-opacity="1" stroke-miterlimit="10" d="M 7.773438 14.390625 L 19.707031 14.390625 L 19.707031 22.769531 L 7.773438 22.769531 Z M 7.773438 14.390625 "/>
<path fill-rule="evenodd" fill="rgb(100%, 100%, 100%)" fill-opacity="1" d="M 8.75 16.71875 C 8.75 15.933594 10.984375 15.296875 13.738281 15.296875 C 16.496094 15.296875 18.730469 15.933594 18.730469 16.71875 C 18.730469 17.503906 16.496094 18.140625 13.738281 18.140625 C 10.984375 18.140625 8.75 17.503906 8.75 16.71875 M 8.75 16.71875 "/>
<path fill="none" stroke-width="0.968" stroke-linecap="butt" stroke-linejoin="round" stroke="rgb(19.607843%, 42.352941%, 89.803922%)" stroke-opacity="1" stroke-miterlimit="10" d="M 18.730469 16.71875 C 18.730469 17.503906 16.496094 18.140625 13.738281 18.140625 C 10.984375 18.140625 8.75 17.503906 8.75 16.71875 C 8.75 15.933594 10.984375 15.296875 13.738281 15.296875 C 16.496094 15.296875 18.730469 15.933594 18.730469 16.71875 L 18.730469 20.566406 C 18.730469 21.351562 16.496094 21.988281 13.738281 21.988281 C 10.984375 21.988281 8.75 21.351562 8.75 20.566406 L 8.75 16.71875 "/>
</svg>

<svg role="img" viewBox="0 0 32.978 32" height="32" width="32.978" xmlns="http://www.w3.org/2000/svg"><path d="M16.445.848a2.085 2.085 0 0 0-.797.199L4.79 6.238c-.57.27-.984.785-1.125 1.399L.984 19.293a2.043 2.043 0 0 0 .282 1.578c.039.055.078.11.12.164l7.516 9.348c.395.488.993.773 1.625.773l12.055-.004c.633 0 1.23-.28 1.625-.773l7.512-9.348a2.042 2.042 0 0 0 .402-1.742L29.437 7.633a2.055 2.055 0 0 0-1.125-1.399L17.454 1.047a2.082 2.082 0 0 0-1.008-.2m0 0" fill="rgb(19.607843%, 42.352941%, 89.803922%)"/><path d="M16.438.004c-.29.016-.575.086-.836.21L4.132 5.696A2.176 2.176 0 0 0 2.95 7.168L.121 19.473a2.14 2.14 0 0 0 .422 1.84l7.934 9.87A2.206 2.206 0 0 0 10.19 32l12.727-.004c.668 0 1.297-.3 1.715-.816l7.93-9.867a2.168 2.168 0 0 0 .425-1.84L30.156 7.164a2.192 2.192 0 0 0-1.187-1.473L17.504.215c-.332-.156-.7-.23-1.067-.211m.008.844c.348-.02.692.05 1.008.199l10.86 5.187c.57.274.984.79 1.125 1.399l2.683 11.656a2.042 2.042 0 0 1-.402 1.742l-7.512 9.348a2.07 2.07 0 0 1-1.625.773l-12.055.004c-.632 0-1.23-.285-1.625-.773l-7.515-9.348a2.042 2.042 0 0 1-.403-1.742l2.68-11.656A2.055 2.055 0 0 1 4.79 6.238l10.86-5.191c.25-.117.519-.188.796-.2m0 0" fill="rgb(100%, 100%, 100%)"/><path d="M13.402 9.23h11.93v8.38h-11.93Zm0 0h0m0 0h0m0 0h0m0 0h0m0 0h0m0 0h0m0 0h0m0 0h0m0 0h0m0 0h0m0 0h0m0 0h0m0 0h0m0 0h0m0 0h0m0 0" fill="none" stroke="rgb(100%, 100%, 100%)" stroke-dasharray="2.903 2.903" stroke-dashoffset=".9" stroke-linecap="square" stroke-linejoin="round" stroke-miterlimit="10" stroke-width=".968"/><path d="M10.59 11.809h11.93v8.382H10.59Zm0 0h0m0 0h0m0 0h0m0 0h0m0 0h0m0 0h0m0 0h0m0 0h0m0 0h0m0 0h0m0 0h0m0 0h0m0 0h0m0 0h0m0 0h0m0 0" fill="rgb(19.607843%, 42.352941%, 89.803922%)" fill-rule="evenodd" stroke="rgb(100%, 100%, 100%)" stroke-dasharray="2.903 2.903" stroke-dashoffset="1.287" stroke-linecap="square" stroke-linejoin="round" stroke-miterlimit="10" stroke-width=".968"/><path d="M7.773 14.39h11.934v8.38H7.773Zm0 0" fill="rgb(100%, 100%, 100%)" fill-rule="evenodd" stroke="rgb(100%, 100%, 100%)" stroke-linejoin="round" stroke-miterlimit="10" stroke-width=".968"/><path d="M8.75 16.719c0-.785 2.234-1.422 4.988-1.422 2.758 0 4.992.637 4.992 1.422 0 .785-2.234 1.422-4.992 1.422-2.754 0-4.988-.637-4.988-1.422m0 0" fill="rgb(100%, 100%, 100%)" fill-rule="evenodd"/><path d="M18.73 16.719c0 .785-2.234 1.422-4.992 1.422-2.754 0-4.988-.637-4.988-1.422 0-.785 2.234-1.422 4.988-1.422 2.758 0 4.992.637 4.992 1.422v3.847c0 .786-2.234 1.422-4.992 1.422-2.754 0-4.988-.636-4.988-1.422V16.72" fill="none" stroke="rgb(19.607843%, 42.352941%, 89.803922%)" stroke-linejoin="round" stroke-miterlimit="10" stroke-width=".968"/></svg>
